icons/folder-settings.svg

<svg width="24" height="24" viewBox="0 0 24 24" fill="none" xmlns="http://www.w3.org/2000/svg">
<path d="M10 4H3V20H21V6H12L10 4Z" stroke="white" stroke-width="2" stroke-linecap="round" stroke-linejoin="round"/>
<circle cx="12" cy="13" r="2.5" stroke="white" stroke-width="2" stroke-linecap="round" stroke-linejoin="round"/>
<path d="M12 10.5V9.5" stroke="white" stroke-width="2" stroke-linecap="round" stroke-linejoin="round"/>
<path d="M12 15.5V16.5" stroke="white" stroke-width="2" stroke-linecap="round" stroke-linejoin="round"/>
<path d="M14.1651 11.75L15.0311 11.25" stroke="white" stroke-width="2" stroke-linecap="round" stroke-linejoin="round"/>
<path d="M9.83493 14.25L8.9689 14.75" stroke="white" stroke-width="2" stroke-linecap="round" stroke-linejoin="round"/>
<path d="M14.1651 14.25L15.0311 14.75" stroke="white" stroke-width="2" stroke-linecap="round" stroke-linejoin="round"/>
<path d="M9.83493 11.75L8.96891 11.25" stroke="white" stroke-width="2" stroke-linecap="round" stroke-linejoin="round"/>
</svg>

<svg
  width="24"
  height="24"
  viewBox="0 0 24 24"
  xmlns="http://www.w3.org/2000/svg"
  fill="none"
  stroke="currentColor"
  stroke-width="2"
  stroke-linecap="round"
  stroke-linejoin="round"
>
  <path d="M10 4H3v16h18V6h-9l-2-2z" />
  <circle cx="12" cy="13" r="2.5" />
  <path d="M12 10.5v-1" />
  <path d="M12 15.5v1" />
  <path d="M14.165 11.75l.866-.5" />
  <path d="M9.835 14.25l-.866.5" />
  <path d="M14.165 14.25l.866.5" />
  <path d="M9.835 11.75l-.866-.5" />
</svg>
